
(Exported by FreeCAD)
(Post Processor: marlin_post.py, version: 2020-11-03)
(Output Time:2022-11-02 12:02:16.834506)
(Begin preamble)
(Default Configuration)
G90
G21
G17
(Begin operation: G54)
G54
G0 Z6.000
(Begin operation: TC: Default Tool)
(TC: Default Tool)
(Begin toolchange)
(M6 T1.0)
(Begin operation: Engrave)
(Engrave)
G0 Z6.000
G0 Z6.000
G0 X-15.269 Y0.567
G0 Z4.000
G1 X-15.269 Y0.567 Z-5.000 F6000.000
G1 X-13.862 Y23.400 Z-5.000 F6000.000
G1 X12.001 Y23.400 Z-5.000 F6000.000
G0 Z6.000
G0 Z6.000
G0 X12.542 Y22.642
G0 Z4.000
G1 X12.542 Y22.642 Z-5.000 F6000.000
G1 X12.542 Y0.000 Z-5.000 F6000.000
G1 X-14.944 Y0.000 Z-5.000 F6000.000
G0 Z6.000
(Begin postamble)
M5
