(Exported by FreeCAD)
(Post Processor: marlin_post.py, version: 2020-11-03)
(Output Time:2022-11-02 11:54:11.704518)
(Begin preamble)
(Default Configuration)
G90
G21
G17
(Begin operation: G54)
G54
G0 Z16.654
(Begin operation: TC: Default Tool)
(TC: Default Tool)
(Begin toolchange)
(M6 T1.0)
(Begin operation: MillFace)
(MillFace)
G0 Z16.654
G0 X0.776 Y12.895
G0 Z14.654
G1 X0.776 Y12.895 Z11.656 F6000.000
G1 X-19.551 Y-7.431 Z11.656 F6000.000
G0 Z16.654
G0 X-19.408 Z16.654
G0 X-19.408 Z14.654
G1 X-19.408 Y-7.431 Z11.656 F6000.000
G1 X-22.458 Y-4.382 Z11.656 F6000.000
G0 Z16.654
G0 Y-4.297 Z16.654
G0 Y-4.297 Z14.654
G1 X-22.458 Y-4.297 Z11.656 F6000.000
G1 X-5.266 Y12.895 Z11.656 F6000.000
G0 Z16.654
G0 X-5.409 Z16.654
G0 X-5.409 Z14.654
G1 X-5.409 Y12.895 Z11.656 F6000.000
G1 X1.177 Y6.310 Z11.656 F6000.000
G0 Z16.654
G0 Y6.225 Z16.654
G0 Y6.225 Z14.654
G1 X1.177 Y6.225 Z11.656 F6000.000
G1 X-12.480 Y-7.431 Z11.656 F6000.000
G0 Z16.654
G0 X-12.337 Z16.654
G0 X-12.337 Z14.654
G1 X-12.337 Y-7.431 Z11.656 F6000.000
G1 X-22.458 Y2.689 Z11.656 F6000.000
G0 Z16.654
G0 Y2.774 Z16.654
G0 Y2.774 Z14.654
G1 X-22.458 Y2.774 Z11.656 F6000.000
G1 X-12.337 Y12.895 Z11.656 F6000.000
G0 Z16.654
G0 X-12.480 Z16.654
G0 X-12.480 Z14.654
G1 X-12.480 Y12.895 Z11.656 F6000.000
G1 X1.177 Y-0.761 Z11.656 F6000.000
G0 Z16.654
G0 Y-0.846 Z16.654
G0 Y-0.846 Z14.654
G1 X1.177 Y-0.846 Z11.656 F6000.000
G1 X-5.409 Y-7.431 Z11.656 F6000.000
G0 Z16.654
G0 X-5.266 Z16.654
G0 X-5.266 Z14.654
G1 X-5.266 Y-7.431 Z11.656 F6000.000
G1 X-22.458 Y9.760 Z11.656 F6000.000
G0 Z16.654
G0 Y9.845 Z16.654
G0 Y9.845 Z14.654
G1 X-22.458 Y9.845 Z11.656 F6000.000
G1 X-19.408 Y12.895 Z11.656 F6000.000
G0 Z16.654
G0 X-19.551 Z16.654
G0 X-19.551 Z14.654
G1 X-19.551 Y12.895 Z11.656 F6000.000
G1 X0.776 Y-7.431 Z11.656 F6000.000
G0 Z16.654
G0 X1.177 Y-6.803 Z16.654
G0 X1.177 Y-6.803 Z14.654
G1 X1.177 Y-6.803 Z11.656 F6000.000
G1 X-18.522 Y12.895 Z11.656 F6000.000
G0 Z16.654
G0 X-16.902 Z16.654
G0 X-16.902 Z14.654
G1 X-16.902 Y12.895 Z11.656 F6000.000
G1 X-22.458 Y7.339 Z11.656 F6000.000
G0 Z16.654
G0 Y6.310 Z16.654
G0 Y6.310 Z14.654
G1 X-22.458 Y6.310 Z11.656 F6000.000
G1 X-15.873 Y12.895 Z11.656 F6000.000
G0 Z16.654
G0 X-16.015 Z16.654
G0 X-16.015 Z14.654
G1 X-16.015 Y12.895 Z11.656 F6000.000
G1 X1.177 Y-4.297 Z11.656 F6000.000
G0 Z16.654
G0 Y-4.382 Z16.654
G0 Y-4.382 Z14.654
G1 X1.177 Y-4.382 Z11.656 F6000.000
G1 X-1.873 Y-7.431 Z11.656 F6000.000
G0 Z16.654
G0 X-1.731 Z16.654
G0 X-1.731 Z14.654
G1 X-1.731 Y-7.431 Z11.656 F6000.000
G1 X-22.057 Y12.895 Z11.656 F6000.000
G0 Z16.654
G0 X-22.458 Y12.267 Z16.654
G0 X-22.458 Y12.267 Z14.654
G1 X-22.458 Y12.267 Z11.656 F6000.000
G1 X-2.760 Y-7.431 Z11.656 F6000.000
G0 Z16.654
G0 X-4.379 Z16.654
G0 X-4.379 Z14.654
G1 X-4.379 Y-7.431 Z11.656 F6000.000
G1 X1.177 Y-1.875 Z11.656 F6000.000
G0 Z16.654
G0 Y-3.267 Z16.654
G0 Y-3.267 Z14.654
G1 X1.177 Y-3.267 Z11.656 F6000.000
G1 X-14.986 Y12.895 Z11.656 F6000.000
G0 Z16.654
G0 X-13.367 Z16.654
G0 X-13.367 Z14.654
G1 X-13.367 Y12.895 Z11.656 F6000.000
G1 X-22.458 Y3.804 Z11.656 F6000.000
G0 Z16.654
G0 Y5.196 Z16.654
G0 Y5.196 Z14.654
G1 X-22.458 Y5.196 Z11.656 F6000.000
G1 X-9.831 Y-7.431 Z11.656 F6000.000
G0 Z16.654
G0 X-8.944 Z16.654
G0 X-8.944 Z14.654
G1 X-8.944 Y-7.431 Z11.656 F6000.000
G1 X1.177 Y2.689 Z11.656 F6000.000
G0 Z16.654
G0 Y2.774 Z16.654
G0 Y2.774 Z14.654
G1 X1.177 Y2.774 Z11.656 F6000.000
G1 X-8.944 Y12.895 Z11.656 F6000.000
G0 Z16.654
G0 X-8.802 Z16.654
G0 X-8.802 Z14.654
G1 X-8.802 Y12.895 Z11.656 F6000.000
G1 X-22.458 Y-0.761 Z11.656 F6000.000
G0 Z16.654
G0 Y-0.846 Z16.654
G0 Y-0.846 Z14.654
G1 X-22.458 Y-0.846 Z11.656 F6000.000
G1 X-15.873 Y-7.431 Z11.656 F6000.000
G0 Z16.654
G0 X-16.015 Z16.654
G0 X-16.015 Z14.654
G1 X-16.015 Y-7.431 Z11.656 F6000.000
G1 X1.177 Y9.760 Z11.656 F6000.000
G0 Z16.654
G0 Y9.845 Z16.654
G0 Y9.845 Z14.654
G1 X1.177 Y9.845 Z11.656 F6000.000
G1 X-1.873 Y12.895 Z11.656 F6000.000
G0 Z16.654
G0 X-1.731 Z16.654
G0 X-1.731 Z14.654
G1 X-1.731 Y12.895 Z11.656 F6000.000
G1 X-22.057 Y-7.431 Z11.656 F6000.000
G0 Z16.654
G0 X-22.458 Y-6.803 Z16.654
G0 X-22.458 Y-6.803 Z14.654
G1 X-22.458 Y-6.803 Z11.656 F6000.000
G1 X-2.760 Y12.895 Z11.656 F6000.000
G0 Z16.654
G0 X-4.379 Z16.654
G0 X-4.379 Z14.654
G1 X-4.379 Y12.895 Z11.656 F6000.000
G1 X1.177 Y7.339 Z11.656 F6000.000
G0 Z16.654
G0 Y8.731 Z16.654
G0 Y8.731 Z14.654
G1 X1.177 Y8.731 Z11.656 F6000.000
G1 X-14.986 Y-7.431 Z11.656 F6000.000
G0 Z16.654
G0 X-13.367 Z16.654
G0 X-13.367 Z14.654
G1 X-13.367 Y-7.431 Z11.656 F6000.000
G1 X-22.458 Y1.660 Z11.656 F6000.000
G0 Z16.654
G0 Y0.268 Z16.654
G0 Y0.268 Z14.654
G1 X-22.458 Y0.268 Z11.656 F6000.000
G1 X-9.831 Y12.895 Z11.656 F6000.000
G0 Z16.654
G0 X-11.451 Z16.654
G0 X-11.451 Z14.654
G1 X-11.451 Y12.895 Z11.656 F6000.000
G1 X1.177 Y0.268 Z11.656 F6000.000
G0 Z16.654
G0 Y1.660 Z16.654
G0 Y1.660 Z14.654
G1 X1.177 Y1.660 Z11.656 F6000.000
G1 X-7.915 Y-7.431 Z11.656 F6000.000
G0 Z16.654
G0 X-8.802 Z16.654
G0 X-8.802 Z14.654
G1 X-8.802 Y-7.431 Z11.656 F6000.000
G1 X-22.458 Y6.225 Z11.656 F6000.000
G0 Z16.654
G0 Y8.731 Z16.654
G0 Y8.731 Z14.654
G1 X-22.458 Y8.731 Z11.656 F6000.000
G1 X-6.295 Y-7.431 Z11.656 F6000.000
G0 Z16.654
G0 X-11.451 Z16.654
G0 X-11.451 Z14.654
G1 X-11.451 Y-7.431 Z11.656 F6000.000
G1 X1.177 Y5.196 Z11.656 F6000.000
G0 Z16.654
G0 Y3.804 Z16.654
G0 Y3.804 Z14.654
G1 X1.177 Y3.804 Z11.656 F6000.000
G1 X-7.915 Y12.895 Z11.656 F6000.000
G0 Z16.654
G0 X-6.295 Z16.654
G0 X-6.295 Z14.654
G1 X-6.295 Y12.895 Z11.656 F6000.000
G1 X-22.458 Y-3.267 Z11.656 F6000.000
G0 Z16.654
G0 Y-1.875 Z16.654
G0 Y-1.875 Z14.654
G1 X-22.458 Y-1.875 Z11.656 F6000.000
G1 X-16.902 Y-7.431 Z11.656 F6000.000
G0 Z16.654
G0 X-18.522 Z16.654
G0 X-18.522 Z14.654
G1 X-18.522 Y-7.431 Z11.656 F6000.000
G1 X1.177 Y12.267 Z11.656 F6000.000
G0 Z16.654
G0 Y10.875 Z16.654
G0 Y10.875 Z14.654
G1 X1.177 Y10.875 Z11.656 F6000.000
G1 X-0.844 Y12.895 Z11.656 F6000.000
G0 Z16.654
G0 X1.177 Y-5.411 Z16.654
G0 X1.177 Y-5.411 Z14.654
G1 X1.177 Y-5.411 Z11.656 F6000.000
G1 X-0.844 Y-7.431 Z11.656 F6000.000
G0 Z16.654
G0 X-20.438 Z16.654
G0 X-20.438 Z14.654
G1 X-20.438 Y-7.431 Z11.656 F6000.000
G1 X-22.458 Y-5.411 Z11.656 F6000.000
G0 Z16.654
G0 Y10.875 Z16.654
G0 Y10.875 Z14.654
G1 X-22.458 Y10.875 Z11.656 F6000.000
G1 X-20.438 Y12.895 Z11.656 F6000.000
G0 Z16.654
G0 Z16.654
(Begin postamble)
M5
